clinic/img/icons/main_page/x-ray.svg

<svg width="81" height="80" viewBox="0 0 81 80" fill="none" xmlns="http://www.w3.org/2000/svg">
<g clip-path="url(#clip0)">
<path d="M11.7491 37.2415L16.1419 57.4488C17.776 64.9656 17.2084 72.794 14.5076 79.9966H66.4966C63.7957 72.794 63.2281 64.9656 64.8622 57.4488L69.2551 37.2415L80.5 27.5869V21.0837C80.5 14.7729 75.3839 9.65675 69.073 9.65675C69.0725 9.65675 69.0721 9.65675 69.0716 9.65675H50.1526V0.0020752H30.8433V9.65675H11.9325C5.62163 9.65364 0.503103 14.7673 0.5 21.0782C0.5 21.0801 0.5 21.0818 0.5 21.0837V27.5869L11.7491 37.2415Z" fill="#F8C09C"/>
<path d="M3.26263 19.3121H77.7415V60.6893H3.26263V19.3121Z" fill="#A9BFD1"/>
<path d="M6.02112 22.0706H74.9831V57.9308H6.02112V22.0706Z" fill="#7D8F9F"/>
<path d="M6.01697 22.0706V32.3238L11.7449 37.2422L16.1378 57.4494C16.1723 57.608 16.1916 57.7694 16.2247 57.9308H64.7725C64.8057 57.7694 64.825 57.608 64.8594 57.4494L69.2551 37.2422L74.9789 32.3238V22.0706H6.01697Z" fill="#EF937D"/>
<path d="M35.8085 38.267L34.1755 36.0436L39.1187 32.4066V22.0706H41.8771V33.1045C41.8746 33.5405 41.666 33.9498 41.3144 34.2079L35.8085 38.267Z" fill="#F6F6E7"/>
<path d="M39.6847 34.2159L41.3167 31.9937L46.8338 36.0453L45.2018 38.2676L39.6847 34.2159Z" fill="#F6F6E7"/>
<path d="M48.9541 49.6553H51.354C52.3618 49.6559 53.3378 50.0091 54.1124 50.6539L55.1634 51.5297C56.7223 52.8278 59.0382 52.6162 60.3363 51.0573C60.8855 50.3975 61.1866 49.5662 61.1866 48.7078C61.1869 42.2488 58.6208 36.0545 54.0531 31.488C51.5555 28.9904 48.1679 27.5874 44.6357 27.5875V45.3411C44.6357 47.7237 46.5673 49.6553 48.9499 49.6553C48.9513 49.6553 48.9527 49.6553 48.9541 49.6553Z" fill="#DD527C"/>
<path d="M32.0501 49.6788H29.6503C28.6422 49.6798 27.6664 50.0336 26.8918 50.6787L25.8408 51.5545C24.2857 52.8571 21.9693 52.6524 20.6666 51.0975C20.1114 50.4348 19.8078 49.5972 19.8092 48.7326C19.809 42.274 22.3744 36.0798 26.9413 31.5128C29.4392 29.0145 32.8273 27.611 36.3601 27.611V45.3659C36.3603 47.7468 34.431 49.6772 32.0501 49.6788Z" fill="#DD527C"/>
<path d="M30.8433 44.1383H28.0848V40.0006C28.0844 39.6344 28.2299 39.2831 28.4889 39.0241L31.2474 36.2656L33.1976 38.2173L30.8433 40.5716V44.1383Z" fill="#B81A48"/>
<path d="M25.3304 38.6213H29.4682V41.3798H25.3304V38.6213Z" fill="#B81A48"/>
<path d="M52.9111 44.1383H50.1526V40.5716L47.8079 38.2173L49.7526 36.2656L52.5111 39.0241C52.7701 39.2831 52.9156 39.6344 52.9152 40.0006L52.9111 44.1383Z" fill="#B81A48"/>
<path d="M51.536 38.6213H55.6737V41.3798H51.536V38.6213Z" fill="#B81A48"/>
</g>
<defs>
<clipPath id="clip0">
<rect width="80" height="80" fill="white" transform="translate(0.5)"/>
</clipPath>
</defs>
</svg>

<svg width="81" height="80" fill="none" xmlns="http://www.w3.org/2000/svg"><g clip-path="url(#clip0)"><path d="M11.75 37.242l4.392 20.207a40.011 40.011 0 01-1.634 22.548h51.989a40.01 40.01 0 01-1.635-22.548l4.393-20.207L80.5 27.587v-6.503c0-6.311-5.116-11.427-11.427-11.427H50.152V.002H30.844v9.655h-18.91C5.621 9.654.502 14.767.5 21.078v6.509l11.25 9.655z" fill="#F8C09C"/><path d="M3.263 19.312H77.74V60.69H3.264V19.312z" fill="#A9BFD1"/><path d="M6.021 22.07h68.962v35.86H6.021V22.07z" fill="#7D8F9F"/><path d="M6.017 22.07v10.254l5.728 4.918 4.393 20.207c.034.159.054.32.087.482h48.547c.034-.162.053-.323.087-.482l4.396-20.207 5.724-4.918V22.07H6.017z" fill="#EF937D"/><path d="M35.809 38.267l-1.633-2.223 4.943-3.637V22.07h2.758v11.034a1.379 1.379 0 01-.563 1.103l-5.505 4.059z" fill="#F6F6E7"/><path d="M39.685 34.216l1.632-2.222 5.517 4.051-1.632 2.223-5.517-4.052z" fill="#F6F6E7"/><path d="M48.954 49.655h2.4c1.008 0 1.984.354 2.758.999l1.051.876a3.673 3.673 0 006.024-2.822 24.348 24.348 0 00-7.134-17.22 13.318 13.318 0 00-9.417-3.9V45.34a4.314 4.314 0 004.314 4.314h.004zm-16.904.024h-2.4a4.317 4.317 0 00-2.758 1l-1.051.875a3.673 3.673 0 01-6.032-2.821 24.352 24.352 0 017.132-17.22 13.32 13.32 0 019.42-3.902v17.755c0 2.38-1.93 4.311-4.31 4.313z" fill="#DD527C"/><path d="M30.843 44.138h-2.758v-4.137c0-.367.145-.718.404-.977l2.758-2.758 1.95 1.951-2.354 2.355v3.566z" fill="#B81A48"/><path d="M25.33 38.621h4.138v2.759H25.33v-2.76zm27.581 5.517h-2.758v-3.566l-2.345-2.355 1.945-1.951 2.758 2.758c.26.26.405.61.404.977l-.004 4.137z" fill="#B81A48"/><path d="M51.536 38.621h4.138v2.759h-4.138v-2.76z" fill="#B81A48"/></g><defs><clipPath id="clip0"><path fill="#fff" transform="translate(.5)" d="M0 0h80v80H0z"/></clipPath></defs></svg>
